X: 5
T: The Trip To Cullenstown
R: reel
M: 4/4
L: 1/8
K: Amaj
AB | ceef ecAB | c2 cA BAFA | ceef ecAB | cBBA B2 AB |
cB (3cde faec | efec BAFA | c2 cA BAFA | EAAG A2 ||
AB | ceec dffe | ceec (3BcB AB | ceec dffg | afec (3BcB AB |
cB (3cde faec | efec BAFA | c2 cA BAFA | EAAG A2 ||


Tune 2996	Setting 23450

